X:2424
T:The Fidee Fey 
C:Traditional
O:Isle of Man
S:Coll.Mona Douglas 
Z:Kiaull Vannin 424 
M:4/4 
L:1/8 
Q:120 
K:G 
D GA Bc|d2 d2 cB cd|B2 Bd c2 A2|B3 G A2 F2| 
G3 D GA Bc|d2 d2 cB cd|G2 Gd c2 A2|B3 G A2 F2|G3|| 

